(Drill file generated by gerber parser versioN0.1.07 )
(This file is the traces that are to be isolated)
(This file uses 45 deg etching bits)
(Change the value after the F to change the feedrate to something appropriate for your equipment in/minute)
G94 F50
 G1 G20 G90
(Change the value after the S to change the spendel speed to something appropriate for your equipment rpm)
N0 S 10000
N5 M3 M7
N10 M8
N15 X0.0 Y0.0 Z0.0000000
(starting new segment)
N20 X-92559631349317831000000000000000000000000000000000000000000000.0000000 Y-92559631349317831000000000000000000000000000000000000000000000.0000000 Z0.0000000
N25 X-92559631349317831000000000000000000000000000000000000000000000.0000000 Y-92559631349317831000000000000000000000000000000000000000000000.0000000 Z-0.2500000
N30 X-92559631349317831000000000000000000000000000000000000000000000.0000000 Y-92559631349317831000000000000000000000000000000000000000000000.0000000 Z-0.2500000
N35 X13.5270000 Y13.5270000 Z-0.2500000
N40 X13.5270000 Y13.5270000 Z-0.2500000
N45 X13.5270000 Y13.5270000 Z-0.2500000
N50 X13.5270000 Y13.5270000 Z-0.2500000
N55 X13.5270000 Y13.5270000 Z-0.2500000
N60 X13.5270000 Y13.5270000 Z-0.2500000
N65 X13.5270000 Y13.5270000 Z-0.2500000
N70 X13.5270000 Y13.5270000 Z-0.2500000
N75 X13.5270000 Y13.5270000 Z-0.2500000
N80 X13.5270000 Y13.5270000 Z-0.2500000
N85 X13.5270000 Y13.5270000 Z-0.2500000
N90 X13.5270000 Y13.5270000 Z-0.2500000
N95 X13.5270000 Y13.5270000 Z-0.2500000
N100 X13.5270000 Y13.5270000 Z-0.2500000
N105 X13.5270000 Y13.5270000 Z-0.2500000
N110 X13.5270000 Y13.5270000 Z-0.2500000
N115 X13.5270000 Y13.5270000 Z-0.2500000
N120 X13.5270000 Y13.5270000 Z-0.2500000
N125 X13.5270000 Y13.5270000 Z-0.2500000
N130 X13.5270000 Y13.5270000 Z-0.2500000
N135 X13.5270000 Y13.5270000 Z-0.2500000
N140 X13.5270000 Y13.5270000 Z-0.2500000
N145 X13.5270000 Y13.5270000 Z-0.2500000
N150 X13.5270000 Y13.5270000 Z-0.2500000
N155 X13.5270000 Y13.5270000 Z-0.2500000
N160 X13.5270000 Y13.5270000 Z-0.2500000
N165 X13.5270000 Y13.5270000 Z-0.2500000
N170 X13.5270000 Y13.5270000 Z-0.2500000
N175 X13.5270000 Y13.5270000 Z-0.2500000
N180 X13.5270000 Y13.5270000 Z-0.2500000
N185 X13.5270000 Y13.5270000 Z-0.2500000
N190 X13.5270000 Y13.5270000 Z-0.2500000
N195 X-92559631349317831000000000000000000000000000000000000000000000.0000000 Y-92559631349317831000000000000000000000000000000000000000000000.0000000 Z-0.2500000
N200 X-92559631349317831000000000000000000000000000000000000000000000.0000000 Y-92559631349317831000000000000000000000000000000000000000000000.0000000 Z0.0000000
(stoping segment)
(starting new segment)
N205 X-1.0 Y-1.0 Z0.0000000
N210 X-1.0 Y-1.0 Z-0.2500000
N215 X-1.0 Y-1.0 Z-0.2500000
N220 X13.5270000 Y15.3162000 Z-0.2500000
N225 X11.7378000 Y15.3162000 Z-0.2500000
(Starting arc)
(Stoping arc)
N230 X11.7378000 Y15.3162000 Z-0.2500000
N235 X13.5270000 Y15.3162000 Z-0.2500000
(Starting arc)
(Stoping arc)
N240 X-1.0 Y-1.0 Z-0.2500000
N245 X-1.0 Y-1.0 Z0.0000000
(stoping segment)
(starting new segment)
N250 X-1.0 Y-1.0 Z0.0000000
N255 X-1.0 Y-1.0 Z-0.2500000
N260 X-1.0 Y-1.0 Z-0.2500000
N265 X13.5270000 Y17.1054000 Z-0.2500000
N270 X15.3162000 Y17.1054000 Z-0.2500000
(Starting arc)
(Stoping arc)
N275 X15.3162000 Y17.1054000 Z-0.2500000
N280 X13.5270000 Y17.1054000 Z-0.2500000
(Starting arc)
(Stoping arc)
N285 X-1.0 Y-1.0 Z-0.2500000
N290 X-1.0 Y-1.0 Z0.0000000
(stoping segment)
(starting new segment)
N295 X-92559631349317831000000000000000000000000000000000000000000000.0000000 Y-92559631349317831000000000000000000000000000000000000000000000.0000000 Z0.0000000
N300 X-92559631349317831000000000000000000000000000000000000000000000.0000000 Y-92559631349317831000000000000000000000000000000000000000000000.0000000 Z-0.2500000
N305 X-92559631349317831000000000000000000000000000000000000000000000.0000000 Y-92559631349317831000000000000000000000000000000000000000000000.0000000 Z-0.2500000
N310 X13.5270000 Y18.8946000 Z-0.2500000
N315 X13.5270000 Y18.8946000 Z-0.2500000
N320 X13.5270000 Y18.8946000 Z-0.2500000
N325 X13.5270000 Y18.8946000 Z-0.2500000
N330 X13.5270000 Y18.8946000 Z-0.2500000
N335 X13.5270000 Y18.8946000 Z-0.2500000
N340 X13.5270000 Y18.8946000 Z-0.2500000
N345 X13.5270000 Y18.8946000 Z-0.2500000
N350 X13.5270000 Y18.8946000 Z-0.2500000
N355 X13.5270000 Y18.8946000 Z-0.2500000
N360 X13.5270000 Y18.8946000 Z-0.2500000
N365 X13.5270000 Y18.8946000 Z-0.2500000
N370 X13.5270000 Y18.8946000 Z-0.2500000
N375 X13.5270000 Y18.8946000 Z-0.2500000
N380 X13.5270000 Y18.8946000 Z-0.2500000
N385 X13.5270000 Y18.8946000 Z-0.2500000
N390 X13.5270000 Y18.8946000 Z-0.2500000
N395 X13.5270000 Y18.8946000 Z-0.2500000
N400 X13.5270000 Y18.8946000 Z-0.2500000
N405 X13.5270000 Y18.8946000 Z-0.2500000
N410 X13.5270000 Y18.8946000 Z-0.2500000
N415 X13.5270000 Y18.8946000 Z-0.2500000
N420 X13.5270000 Y18.8946000 Z-0.2500000
N425 X13.5270000 Y18.8946000 Z-0.2500000
N430 X13.5270000 Y18.8946000 Z-0.2500000
N435 X13.5270000 Y18.8946000 Z-0.2500000
N440 X13.5270000 Y18.8946000 Z-0.2500000
N445 X13.5270000 Y18.8946000 Z-0.2500000
N450 X13.5270000 Y18.8946000 Z-0.2500000
N455 X13.5270000 Y18.8946000 Z-0.2500000
N460 X13.5270000 Y18.8946000 Z-0.2500000
N465 X13.5270000 Y18.8946000 Z-0.2500000
N470 X-92559631349317831000000000000000000000000000000000000000000000.0000000 Y-92559631349317831000000000000000000000000000000000000000000000.0000000 Z-0.2500000
N475 X-92559631349317831000000000000000000000000000000000000000000000.0000000 Y-92559631349317831000000000000000000000000000000000000000000000.0000000 Z0.0000000
(stoping segment)
(starting new segment)
N480 X-1.0 Y-1.0 Z0.0000000
N485 X-1.0 Y-1.0 Z-0.2500000
N490 X-1.0 Y-1.0 Z-0.2500000
N495 X13.5270000 Y20.6838000 Z-0.2500000
N500 X15.3162000 Y20.6838000 Z-0.2500000
(Starting arc)
(Stoping arc)
N505 X15.3162000 Y20.6838000 Z-0.2500000
N510 X13.5270000 Y20.6838000 Z-0.2500000
(Starting arc)
(Stoping arc)
N515 X-1.0 Y-1.0 Z-0.2500000
N520 X-1.0 Y-1.0 Z0.0000000
(stoping segment)
(starting new segment)
N525 X-92559631349317831000000000000000000000000000000000000000000000.0000000 Y-92559631349317831000000000000000000000000000000000000000000000.0000000 Z0.0000000
N530 X-92559631349317831000000000000000000000000000000000000000000000.0000000 Y-92559631349317831000000000000000000000000000000000000000000000.0000000 Z-0.2500000
N535 X-92559631349317831000000000000000000000000000000000000000000000.0000000 Y-92559631349317831000000000000000000000000000000000000000000000.0000000 Z-0.2500000
N540 X13.5270000 Y22.4730000 Z-0.2500000
N545 X13.5270000 Y22.4730000 Z-0.2500000
N550 X13.5270000 Y22.4730000 Z-0.2500000
N555 X13.5270000 Y22.4730000 Z-0.2500000
N560 X13.5270000 Y22.4730000 Z-0.2500000
N565 X13.5270000 Y22.4730000 Z-0.2500000
N570 X13.5270000 Y22.4730000 Z-0.2500000
N575 X13.5270000 Y22.4730000 Z-0.2500000
N580 X13.5270000 Y22.4730000 Z-0.2500000
N585 X13.5270000 Y22.4730000 Z-0.2500000
N590 X13.5270000 Y22.4730000 Z-0.2500000
N595 X13.5270000 Y22.4730000 Z-0.2500000
N600 X13.5270000 Y22.4730000 Z-0.2500000
N605 X13.5270000 Y22.4730000 Z-0.2500000
N610 X13.5270000 Y22.4730000 Z-0.2500000
N615 X13.5270000 Y22.4730000 Z-0.2500000
N620 X13.5270000 Y22.4730000 Z-0.2500000
N625 X13.5270000 Y22.4730000 Z-0.2500000
N630 X13.5270000 Y22.4730000 Z-0.2500000
N635 X13.5270000 Y22.4730000 Z-0.2500000
N640 X13.5270000 Y22.4730000 Z-0.2500000
N645 X13.5270000 Y22.4730000 Z-0.2500000
N650 X13.5270000 Y22.4730000 Z-0.2500000
N655 X13.5270000 Y22.4730000 Z-0.2500000
N660 X13.5270000 Y22.4730000 Z-0.2500000
N665 X13.5270000 Y22.4730000 Z-0.2500000
N670 X13.5270000 Y22.4730000 Z-0.2500000
N675 X13.5270000 Y22.4730000 Z-0.2500000
N680 X13.5270000 Y22.4730000 Z-0.2500000
N685 X13.5270000 Y22.4730000 Z-0.2500000
N690 X13.5270000 Y22.4730000 Z-0.2500000
N695 X13.5270000 Y22.4730000 Z-0.2500000
N700 X-92559631349317831000000000000000000000000000000000000000000000.0000000 Y-92559631349317831000000000000000000000000000000000000000000000.0000000 Z-0.2500000
N705 X-92559631349317831000000000000000000000000000000000000000000000.0000000 Y-92559631349317831000000000000000000000000000000000000000000000.0000000 Z0.0000000
(stoping segment)
(starting new segment)
N710 X-92559631349317831000000000000000000000000000000000000000000000.0000000 Y-92559631349317831000000000000000000000000000000000000000000000.0000000 Z0.0000000
N715 X-92559631349317831000000000000000000000000000000000000000000000.0000000 Y-92559631349317831000000000000000000000000000000000000000000000.0000000 Z-0.2500000
N720 X-92559631349317831000000000000000000000000000000000000000000000.0000000 Y-92559631349317831000000000000000000000000000000000000000000000.0000000 Z-0.2500000
N725 X13.5270000 Y24.2622000 Z-0.2500000
N730 X13.5270000 Y24.2622000 Z-0.2500000
N735 X13.5270000 Y24.2622000 Z-0.2500000
N740 X13.5270000 Y24.2622000 Z-0.2500000
N745 X13.5270000 Y24.2622000 Z-0.2500000
N750 X13.5270000 Y24.2622000 Z-0.2500000
N755 X13.5270000 Y24.2622000 Z-0.2500000
N760 X13.5270000 Y24.2622000 Z-0.2500000
N765 X13.5270000 Y24.2622000 Z-0.2500000
N770 X13.5270000 Y24.2622000 Z-0.2500000
N775 X13.5270000 Y24.2622000 Z-0.2500000
N780 X13.5270000 Y24.2622000 Z-0.2500000
N785 X13.5270000 Y24.2622000 Z-0.2500000
N790 X13.5270000 Y24.2622000 Z-0.2500000
N795 X13.5270000 Y24.2622000 Z-0.2500000
N800 X13.5270000 Y24.2622000 Z-0.2500000
N805 X13.5270000 Y24.2622000 Z-0.2500000
N810 X13.5270000 Y24.2622000 Z-0.2500000
N815 X13.5270000 Y24.2622000 Z-0.2500000
N820 X13.5270000 Y24.2622000 Z-0.2500000
N825 X13.5270000 Y24.2622000 Z-0.2500000
N830 X13.5270000 Y24.2622000 Z-0.2500000
N835 X13.5270000 Y24.2622000 Z-0.2500000
N840 X13.5270000 Y24.2622000 Z-0.2500000
N845 X13.5270000 Y24.2622000 Z-0.2500000
N850 X13.5270000 Y24.2622000 Z-0.2500000
N855 X13.5270000 Y24.2622000 Z-0.2500000
N860 X13.5270000 Y24.2622000 Z-0.2500000
N865 X13.5270000 Y24.2622000 Z-0.2500000
N870 X13.5270000 Y24.2622000 Z-0.2500000
N875 X13.5270000 Y24.2622000 Z-0.2500000
N880 X13.5270000 Y24.2622000 Z-0.2500000
N885 X-92559631349317831000000000000000000000000000000000000000000000.0000000 Y-92559631349317831000000000000000000000000000000000000000000000.0000000 Z-0.2500000
N890 X-92559631349317831000000000000000000000000000000000000000000000.0000000 Y-92559631349317831000000000000000000000000000000000000000000000.0000000 Z0.0000000
(stoping segment)
(starting new segment)
N895 X-92559631349317831000000000000000000000000000000000000000000000.0000000 Y-92559631349317831000000000000000000000000000000000000000000000.0000000 Z0.0000000
N900 X-92559631349317831000000000000000000000000000000000000000000000.0000000 Y-92559631349317831000000000000000000000000000000000000000000000.0000000 Z-0.2500000
N905 X-92559631349317831000000000000000000000000000000000000000000000.0000000 Y-92559631349317831000000000000000000000000000000000000000000000.0000000 Z-0.2500000
N910 X18.8946000 Y13.5270000 Z-0.2500000
N915 X18.8946000 Y13.5270000 Z-0.2500000
N920 X18.8946000 Y13.5270000 Z-0.2500000
N925 X18.8946000 Y13.5270000 Z-0.2500000
N930 X18.8946000 Y13.5270000 Z-0.2500000
N935 X18.8946000 Y13.5270000 Z-0.2500000
N940 X18.8946000 Y13.5270000 Z-0.2500000
N945 X18.8946000 Y13.5270000 Z-0.2500000
N950 X18.8946000 Y13.5270000 Z-0.2500000
N955 X18.8946000 Y13.5270000 Z-0.2500000
N960 X18.8946000 Y13.5270000 Z-0.2500000
N965 X18.8946000 Y13.5270000 Z-0.2500000
N970 X18.8946000 Y13.5270000 Z-0.2500000
N975 X18.8946000 Y13.5270000 Z-0.2500000
N980 X18.8946000 Y13.5270000 Z-0.2500000
N985 X18.8946000 Y13.5270000 Z-0.2500000
N990 X18.8946000 Y13.5270000 Z-0.2500000
N995 X18.8946000 Y13.5270000 Z-0.2500000
N1000 X18.8946000 Y13.5270000 Z-0.2500000
N1005 X18.8946000 Y13.5270000 Z-0.2500000
N1010 X18.8946000 Y13.5270000 Z-0.2500000
N1015 X18.8946000 Y13.5270000 Z-0.2500000
N1020 X18.8946000 Y13.5270000 Z-0.2500000
N1025 X18.8946000 Y13.5270000 Z-0.2500000
N1030 X18.8946000 Y13.5270000 Z-0.2500000
N1035 X18.8946000 Y13.5270000 Z-0.2500000
N1040 X18.8946000 Y13.5270000 Z-0.2500000
N1045 X18.8946000 Y13.5270000 Z-0.2500000
N1050 X18.8946000 Y13.5270000 Z-0.2500000
N1055 X18.8946000 Y13.5270000 Z-0.2500000
N1060 X18.8946000 Y13.5270000 Z-0.2500000
N1065 X18.8946000 Y13.5270000 Z-0.2500000
N1070 X-92559631349317831000000000000000000000000000000000000000000000.0000000 Y-92559631349317831000000000000000000000000000000000000000000000.0000000 Z-0.2500000
N1075 X-92559631349317831000000000000000000000000000000000000000000000.0000000 Y-92559631349317831000000000000000000000000000000000000000000000.0000000 Z0.0000000
(stoping segment)
(starting new segment)
N1080 X-1.0 Y-1.0 Z0.0000000
N1085 X-1.0 Y-1.0 Z-0.2500000
N1090 X-1.0 Y-1.0 Z-0.2500000
N1095 X18.8946000 Y15.3162000 Z-0.2500000
N1100 X17.5527000 Y15.3162000 Z-0.2500000
(Starting arc)
(Stoping arc)
N1105 X17.5527000 Y15.3162000 Z-0.2500000
N1110 X18.8946000 Y15.3162000 Z-0.2500000
(Starting arc)
(Stoping arc)
N1115 X-1.0 Y-1.0 Z-0.2500000
N1120 X-1.0 Y-1.0 Z0.0000000
(stoping segment)
(starting new segment)
N1125 X-92559631349317831000000000000000000000000000000000000000000000.0000000 Y-92559631349317831000000000000000000000000000000000000000000000.0000000 Z0.0000000
N1130 X-92559631349317831000000000000000000000000000000000000000000000.0000000 Y-92559631349317831000000000000000000000000000000000000000000000.0000000 Z-0.2500000
N1135 X-92559631349317831000000000000000000000000000000000000000000000.0000000 Y-92559631349317831000000000000000000000000000000000000000000000.0000000 Z-0.2500000
N1140 X18.8946000 Y17.1054000 Z-0.2500000
N1145 X18.8946000 Y17.1054000 Z-0.2500000
N1150 X18.8946000 Y17.1054000 Z-0.2500000
N1155 X18.8946000 Y17.1054000 Z-0.2500000
N1160 X18.8946000 Y17.1054000 Z-0.2500000
N1165 X18.8946000 Y17.1054000 Z-0.2500000
N1170 X18.8946000 Y17.1054000 Z-0.2500000
N1175 X18.8946000 Y17.1054000 Z-0.2500000
N1180 X18.8946000 Y17.1054000 Z-0.2500000
N1185 X18.8946000 Y17.1054000 Z-0.2500000
N1190 X18.8946000 Y17.1054000 Z-0.2500000
N1195 X18.8946000 Y17.1054000 Z-0.2500000
N1200 X18.8946000 Y17.1054000 Z-0.2500000
N1205 X18.8946000 Y17.1054000 Z-0.2500000
N1210 X18.8946000 Y17.1054000 Z-0.2500000
N1215 X18.8946000 Y17.1054000 Z-0.2500000
N1220 X18.8946000 Y17.1054000 Z-0.2500000
N1225 X18.8946000 Y17.1054000 Z-0.2500000
N1230 X18.8946000 Y17.1054000 Z-0.2500000
N1235 X18.8946000 Y17.1054000 Z-0.2500000
N1240 X18.8946000 Y17.1054000 Z-0.2500000
N1245 X18.8946000 Y17.1054000 Z-0.2500000
N1250 X18.8946000 Y17.1054000 Z-0.2500000
N1255 X18.8946000 Y17.1054000 Z-0.2500000
N1260 X18.8946000 Y17.1054000 Z-0.2500000
N1265 X18.8946000 Y17.1054000 Z-0.2500000
N1270 X18.8946000 Y17.1054000 Z-0.2500000
N1275 X18.8946000 Y17.1054000 Z-0.2500000
N1280 X18.8946000 Y17.1054000 Z-0.2500000
N1285 X18.8946000 Y17.1054000 Z-0.2500000
N1290 X18.8946000 Y17.1054000 Z-0.2500000
N1295 X18.8946000 Y17.1054000 Z-0.2500000
N1300 X-92559631349317831000000000000000000000000000000000000000000000.0000000 Y-92559631349317831000000000000000000000000000000000000000000000.0000000 Z-0.2500000
N1305 X-92559631349317831000000000000000000000000000000000000000000000.0000000 Y-92559631349317831000000000000000000000000000000000000000000000.0000000 Z0.0000000
(stoping segment)
(starting new segment)
N1310 X-92559631349317831000000000000000000000000000000000000000000000.0000000 Y-92559631349317831000000000000000000000000000000000000000000000.0000000 Z0.0000000
N1315 X-92559631349317831000000000000000000000000000000000000000000000.0000000 Y-92559631349317831000000000000000000000000000000000000000000000.0000000 Z-0.2500000
N1320 X-92559631349317831000000000000000000000000000000000000000000000.0000000 Y-92559631349317831000000000000000000000000000000000000000000000.0000000 Z-0.2500000
N1325 X18.8946000 Y18.8946000 Z-0.2500000
N1330 X18.8946000 Y18.8946000 Z-0.2500000
N1335 X18.8946000 Y18.8946000 Z-0.2500000
N1340 X18.8946000 Y18.8946000 Z-0.2500000
N1345 X18.8946000 Y18.8946000 Z-0.2500000
N1350 X18.8946000 Y18.8946000 Z-0.2500000
N1355 X18.8946000 Y18.8946000 Z-0.2500000
N1360 X18.8946000 Y18.8946000 Z-0.2500000
N1365 X18.8946000 Y18.8946000 Z-0.2500000
N1370 X18.8946000 Y18.8946000 Z-0.2500000
N1375 X18.8946000 Y18.8946000 Z-0.2500000
N1380 X18.8946000 Y18.8946000 Z-0.2500000
N1385 X18.8946000 Y18.8946000 Z-0.2500000
N1390 X18.8946000 Y18.8946000 Z-0.2500000
N1395 X18.8946000 Y18.8946000 Z-0.2500000
N1400 X18.8946000 Y18.8946000 Z-0.2500000
N1405 X18.8946000 Y18.8946000 Z-0.2500000
N1410 X18.8946000 Y18.8946000 Z-0.2500000
N1415 X18.8946000 Y18.8946000 Z-0.2500000
N1420 X18.8946000 Y18.8946000 Z-0.2500000
N1425 X18.8946000 Y18.8946000 Z-0.2500000
N1430 X18.8946000 Y18.8946000 Z-0.2500000
N1435 X18.8946000 Y18.8946000 Z-0.2500000
N1440 X18.8946000 Y18.8946000 Z-0.2500000
N1445 X18.8946000 Y18.8946000 Z-0.2500000
N1450 X18.8946000 Y18.8946000 Z-0.2500000
N1455 X18.8946000 Y18.8946000 Z-0.2500000
N1460 X18.8946000 Y18.8946000 Z-0.2500000
N1465 X18.8946000 Y18.8946000 Z-0.2500000
N1470 X18.8946000 Y18.8946000 Z-0.2500000
N1475 X18.8946000 Y18.8946000 Z-0.2500000
N1480 X18.8946000 Y18.8946000 Z-0.2500000
N1485 X-92559631349317831000000000000000000000000000000000000000000000.0000000 Y-92559631349317831000000000000000000000000000000000000000000000.0000000 Z-0.2500000
N1490 X-92559631349317831000000000000000000000000000000000000000000000.0000000 Y-92559631349317831000000000000000000000000000000000000000000000.0000000 Z0.0000000
(stoping segment)
(starting new segment)
N1495 X-92559631349317831000000000000000000000000000000000000000000000.0000000 Y-92559631349317831000000000000000000000000000000000000000000000.0000000 Z0.0000000
N1500 X-92559631349317831000000000000000000000000000000000000000000000.0000000 Y-92559631349317831000000000000000000000000000000000000000000000.0000000 Z-0.2500000
N1505 X-92559631349317831000000000000000000000000000000000000000000000.0000000 Y-92559631349317831000000000000000000000000000000000000000000000.0000000 Z-0.2500000
N1510 X18.8946000 Y20.6838000 Z-0.2500000
N1515 X18.8946000 Y20.6838000 Z-0.2500000
N1520 X18.8946000 Y20.6838000 Z-0.2500000
N1525 X18.8946000 Y20.6838000 Z-0.2500000
N1530 X18.8946000 Y20.6838000 Z-0.2500000
N1535 X18.8946000 Y20.6838000 Z-0.2500000
N1540 X18.8946000 Y20.6838000 Z-0.2500000
N1545 X18.8946000 Y20.6838000 Z-0.2500000
N1550 X18.8946000 Y20.6838000 Z-0.2500000
N1555 X18.8946000 Y20.6838000 Z-0.2500000
N1560 X18.8946000 Y20.6838000 Z-0.2500000
N1565 X18.8946000 Y20.6838000 Z-0.2500000
N1570 X18.8946000 Y20.6838000 Z-0.2500000
N1575 X18.8946000 Y20.6838000 Z-0.2500000
N1580 X18.8946000 Y20.6838000 Z-0.2500000
N1585 X18.8946000 Y20.6838000 Z-0.2500000
N1590 X18.8946000 Y20.6838000 Z-0.2500000
N1595 X18.8946000 Y20.6838000 Z-0.2500000
N1600 X18.8946000 Y20.6838000 Z-0.2500000
N1605 X18.8946000 Y20.6838000 Z-0.2500000
N1610 X18.8946000 Y20.6838000 Z-0.2500000
N1615 X18.8946000 Y20.6838000 Z-0.2500000
N1620 X18.8946000 Y20.6838000 Z-0.2500000
N1625 X18.8946000 Y20.6838000 Z-0.2500000
N1630 X18.8946000 Y20.6838000 Z-0.2500000
N1635 X18.8946000 Y20.6838000 Z-0.2500000
N1640 X18.8946000 Y20.6838000 Z-0.2500000
N1645 X18.8946000 Y20.6838000 Z-0.2500000
N1650 X18.8946000 Y20.6838000 Z-0.2500000
N1655 X18.8946000 Y20.6838000 Z-0.2500000
N1660 X18.8946000 Y20.6838000 Z-0.2500000
N1665 X18.8946000 Y20.6838000 Z-0.2500000
N1670 X-92559631349317831000000000000000000000000000000000000000000000.0000000 Y-92559631349317831000000000000000000000000000000000000000000000.0000000 Z-0.2500000
N1675 X-92559631349317831000000000000000000000000000000000000000000000.0000000 Y-92559631349317831000000000000000000000000000000000000000000000.0000000 Z0.0000000
(stoping segment)
(starting new segment)
N1680 X-1.0 Y-1.0 Z0.0000000
N1685 X-1.0 Y-1.0 Z-0.2500000
N1690 X-1.0 Y-1.0 Z-0.2500000
N1695 X18.8946000 Y22.4730000 Z-0.2500000
N1700 X18.8946000 Y23.3676000 Z-0.2500000
(Starting arc)
(Stoping arc)
N1705 X18.8946000 Y23.3676000 Z-0.2500000
N1710 X18.8946000 Y22.4730000 Z-0.2500000
(Starting arc)
(Stoping arc)
N1715 X-1.0 Y-1.0 Z-0.2500000
N1720 X-1.0 Y-1.0 Z0.0000000
(stoping segment)
(starting new segment)
N1725 X-92559631349317831000000000000000000000000000000000000000000000.0000000 Y-92559631349317831000000000000000000000000000000000000000000000.0000000 Z0.0000000
N1730 X-92559631349317831000000000000000000000000000000000000000000000.0000000 Y-92559631349317831000000000000000000000000000000000000000000000.0000000 Z-0.2500000
N1735 X-92559631349317831000000000000000000000000000000000000000000000.0000000 Y-92559631349317831000000000000000000000000000000000000000000000.0000000 Z-0.2500000
N1740 X18.8946000 Y24.2622000 Z-0.2500000
N1745 X18.8946000 Y24.2622000 Z-0.2500000
N1750 X18.8946000 Y24.2622000 Z-0.2500000
N1755 X18.8946000 Y24.2622000 Z-0.2500000
N1760 X18.8946000 Y24.2622000 Z-0.2500000
N1765 X18.8946000 Y24.2622000 Z-0.2500000
N1770 X18.8946000 Y24.2622000 Z-0.2500000
N1775 X18.8946000 Y24.2622000 Z-0.2500000
N1780 X18.8946000 Y24.2622000 Z-0.2500000
N1785 X18.8946000 Y24.2622000 Z-0.2500000
N1790 X18.8946000 Y24.2622000 Z-0.2500000
N1795 X18.8946000 Y24.2622000 Z-0.2500000
N1800 X18.8946000 Y24.2622000 Z-0.2500000
N1805 X18.8946000 Y24.2622000 Z-0.2500000
N1810 X18.8946000 Y24.2622000 Z-0.2500000
N1815 X18.8946000 Y24.2622000 Z-0.2500000
N1820 X18.8946000 Y24.2622000 Z-0.2500000
N1825 X18.8946000 Y24.2622000 Z-0.2500000
N1830 X18.8946000 Y24.2622000 Z-0.2500000
N1835 X18.8946000 Y24.2622000 Z-0.2500000
N1840 X18.8946000 Y24.2622000 Z-0.2500000
N1845 X18.8946000 Y24.2622000 Z-0.2500000
N1850 X18.8946000 Y24.2622000 Z-0.2500000
N1855 X18.8946000 Y24.2622000 Z-0.2500000
N1860 X18.8946000 Y24.2622000 Z-0.2500000
N1865 X18.8946000 Y24.2622000 Z-0.2500000
N1870 X18.8946000 Y24.2622000 Z-0.2500000
N1875 X18.8946000 Y24.2622000 Z-0.2500000
N1880 X18.8946000 Y24.2622000 Z-0.2500000
N1885 X18.8946000 Y24.2622000 Z-0.2500000
N1890 X18.8946000 Y24.2622000 Z-0.2500000
N1895 X18.8946000 Y24.2622000 Z-0.2500000
N1900 X-92559631349317831000000000000000000000000000000000000000000000.0000000 Y-92559631349317831000000000000000000000000000000000000000000000.0000000 Z-0.2500000
N1905 X-92559631349317831000000000000000000000000000000000000000000000.0000000 Y-92559631349317831000000000000000000000000000000000000000000000.0000000 Z0.0000000
(stoping segment)
(starting new segment)
N1910 X-1.0 Y-1.0 Z0.0000000
N1915 X-1.0 Y-1.0 Z-0.2500000
N1920 X-1.0 Y-1.0 Z-0.2500000
N1925 X26.4987000 Y8.6630600 Z-0.2500000
N1930 X26.4987000 Y8.6067000 Z-0.2500000
(Starting arc)
(Stoping arc)
N1935 X26.4987000 Y8.6067000 Z-0.2500000
N1940 X26.4987000 Y8.6630600 Z-0.2500000
(Starting arc)
(Stoping arc)
N1945 X-1.0 Y-1.0 Z-0.2500000
N1950 X-1.0 Y-1.0 Z0.0000000
(stoping segment)
(starting new segment)
N1955 X-1.0 Y-1.0 Z0.0000000
N1960 X-1.0 Y-1.0 Z-0.2500000
N1965 X-1.0 Y-1.0 Z-0.2500000
N1970 X26.4987000 Y12.8895000 Z-0.2500000
N1975 X26.4987000 Y13.5270000 Z-0.2500000
(Starting arc)
(Stoping arc)
N1980 X26.4987000 Y13.5270000 Z-0.2500000
N1985 X26.4987000 Y12.8895000 Z-0.2500000
(Starting arc)
(Stoping arc)
N1990 X-1.0 Y-1.0 Z-0.2500000
N1995 X-1.0 Y-1.0 Z0.0000000
(stoping segment)
(starting new segment)
N2000 X-92559631349317831000000000000000000000000000000000000000000000.0000000 Y-92559631349317831000000000000000000000000000000000000000000000.0000000 Z0.0000000
N2005 X-92559631349317831000000000000000000000000000000000000000000000.0000000 Y-92559631349317831000000000000000000000000000000000000000000000.0000000 Z-0.2500000
N2010 X-92559631349317831000000000000000000000000000000000000000000000.0000000 Y-92559631349317831000000000000000000000000000000000000000000000.0000000 Z-0.2500000
N2015 X27.3933000 Y21.1874000 Z-0.2500000
N2020 X27.3933000 Y21.1874000 Z-0.2500000
N2025 X27.3933000 Y21.1874000 Z-0.2500000
N2030 X27.3933000 Y21.1874000 Z-0.2500000
N2035 X27.3933000 Y21.1874000 Z-0.2500000
N2040 X27.3933000 Y21.1874000 Z-0.2500000
N2045 X27.3933000 Y21.1874000 Z-0.2500000
N2050 X27.3933000 Y21.1874000 Z-0.2500000
N2055 X27.3933000 Y21.1874000 Z-0.2500000
N2060 X27.3933000 Y21.1874000 Z-0.2500000
N2065 X27.3933000 Y21.1874000 Z-0.2500000
N2070 X27.3933000 Y21.1874000 Z-0.2500000
N2075 X27.3933000 Y21.1874000 Z-0.2500000
N2080 X27.3933000 Y21.1874000 Z-0.2500000
N2085 X27.3933000 Y21.1874000 Z-0.2500000
N2090 X27.3933000 Y21.1874000 Z-0.2500000
N2095 X27.3933000 Y21.1874000 Z-0.2500000
N2100 X27.3933000 Y21.1874000 Z-0.2500000
N2105 X27.3933000 Y21.1874000 Z-0.2500000
N2110 X27.3933000 Y21.1874000 Z-0.2500000
N2115 X27.3933000 Y21.1874000 Z-0.2500000
N2120 X27.3933000 Y21.1874000 Z-0.2500000
N2125 X27.3933000 Y21.1874000 Z-0.2500000
N2130 X27.3933000 Y21.1874000 Z-0.2500000
N2135 X27.3933000 Y21.1874000 Z-0.2500000
N2140 X27.3933000 Y21.1874000 Z-0.2500000
N2145 X27.3933000 Y21.1874000 Z-0.2500000
N2150 X27.3933000 Y21.1874000 Z-0.2500000
N2155 X27.3933000 Y21.1874000 Z-0.2500000
N2160 X27.3933000 Y21.1874000 Z-0.2500000
N2165 X27.3933000 Y21.1874000 Z-0.2500000
N2170 X27.3933000 Y21.1874000 Z-0.2500000
N2175 X-92559631349317831000000000000000000000000000000000000000000000.0000000 Y-92559631349317831000000000000000000000000000000000000000000000.0000000 Z-0.2500000
N2180 X-92559631349317831000000000000000000000000000000000000000000000.0000000 Y-92559631349317831000000000000000000000000000000000000000000000.0000000 Z0.0000000
(stoping segment)
(starting new segment)
N2185 X-92559631349317831000000000000000000000000000000000000000000000.0000000 Y-92559631349317831000000000000000000000000000000000000000000000.0000000 Z0.0000000
N2190 X-92559631349317831000000000000000000000000000000000000000000000.0000000 Y-92559631349317831000000000000000000000000000000000000000000000.0000000 Z-0.2500000
N2195 X-92559631349317831000000000000000000000000000000000000000000000.0000000 Y-92559631349317831000000000000000000000000000000000000000000000.0000000 Z-0.2500000
N2200 X27.3933000 Y25.4139000 Z-0.2500000
N2205 X27.3933000 Y25.4139000 Z-0.2500000
N2210 X27.3933000 Y25.4139000 Z-0.2500000
N2215 X27.3933000 Y25.4139000 Z-0.2500000
N2220 X27.3933000 Y25.4139000 Z-0.2500000
N2225 X27.3933000 Y25.4139000 Z-0.2500000
N2230 X27.3933000 Y25.4139000 Z-0.2500000
N2235 X27.3933000 Y25.4139000 Z-0.2500000
N2240 X27.3933000 Y25.4139000 Z-0.2500000
N2245 X27.3933000 Y25.4139000 Z-0.2500000
N2250 X27.3933000 Y25.4139000 Z-0.2500000
N2255 X27.3933000 Y25.4139000 Z-0.2500000
N2260 X27.3933000 Y25.4139000 Z-0.2500000
N2265 X27.3933000 Y25.4139000 Z-0.2500000
N2270 X27.3933000 Y25.4139000 Z-0.2500000
N2275 X27.3933000 Y25.4139000 Z-0.2500000
N2280 X27.3933000 Y25.4139000 Z-0.2500000
N2285 X27.3933000 Y25.4139000 Z-0.2500000
N2290 X27.3933000 Y25.4139000 Z-0.2500000
N2295 X27.3933000 Y25.4139000 Z-0.2500000
N2300 X27.3933000 Y25.4139000 Z-0.2500000
N2305 X27.3933000 Y25.4139000 Z-0.2500000
N2310 X27.3933000 Y25.4139000 Z-0.2500000
N2315 X27.3933000 Y25.4139000 Z-0.2500000
N2320 X27.3933000 Y25.4139000 Z-0.2500000
N2325 X27.3933000 Y25.4139000 Z-0.2500000
N2330 X27.3933000 Y25.4139000 Z-0.2500000
N2335 X27.3933000 Y25.4139000 Z-0.2500000
N2340 X27.3933000 Y25.4139000 Z-0.2500000
N2345 X27.3933000 Y25.4139000 Z-0.2500000
N2350 X27.3933000 Y25.4139000 Z-0.2500000
N2355 X27.3933000 Y25.4139000 Z-0.2500000
N2360 X-92559631349317831000000000000000000000000000000000000000000000.0000000 Y-92559631349317831000000000000000000000000000000000000000000000.0000000 Z-0.2500000
N2365 X-92559631349317831000000000000000000000000000000000000000000000.0000000 Y-92559631349317831000000000000000000000000000000000000000000000.0000000 Z0.0000000
(stoping segment)
(starting new segment)
N2370 X-92559631349317831000000000000000000000000000000000000000000000.0000000 Y-92559631349317831000000000000000000000000000000000000000000000.0000000 Z0.0000000
N2375 X-92559631349317831000000000000000000000000000000000000000000000.0000000 Y-92559631349317831000000000000000000000000000000000000000000000.0000000 Z-0.2500000
N2380 X-92559631349317831000000000000000000000000000000000000000000000.0000000 Y-92559631349317831000000000000000000000000000000000000000000000.0000000 Z-0.2500000
N2385 X23.1880000 Y10.7763000 Z-0.2500000
N2390 X23.1880000 Y10.7763000 Z-0.2500000
N2395 X23.1880000 Y10.7763000 Z-0.2500000
N2400 X23.1880000 Y10.7763000 Z-0.2500000
N2405 X23.1880000 Y10.7763000 Z-0.2500000
N2410 X23.1880000 Y10.7763000 Z-0.2500000
N2415 X23.1880000 Y10.7763000 Z-0.2500000
N2420 X23.1880000 Y10.7763000 Z-0.2500000
N2425 X23.1880000 Y10.7763000 Z-0.2500000
N2430 X23.1880000 Y10.7763000 Z-0.2500000
N2435 X23.1880000 Y10.7763000 Z-0.2500000
N2440 X23.1880000 Y10.7763000 Z-0.2500000
N2445 X23.1880000 Y10.7763000 Z-0.2500000
N2450 X23.1880000 Y10.7763000 Z-0.2500000
N2455 X23.1880000 Y10.7763000 Z-0.2500000
N2460 X23.1880000 Y10.7763000 Z-0.2500000
N2465 X23.1880000 Y10.7763000 Z-0.2500000
N2470 X23.1880000 Y10.7763000 Z-0.2500000
N2475 X23.1880000 Y10.7763000 Z-0.2500000
N2480 X23.1880000 Y10.7763000 Z-0.2500000
N2485 X23.1880000 Y10.7763000 Z-0.2500000
N2490 X23.1880000 Y10.7763000 Z-0.2500000
N2495 X23.1880000 Y10.7763000 Z-0.2500000
N2500 X23.1880000 Y10.7763000 Z-0.2500000
N2505 X23.1880000 Y10.7763000 Z-0.2500000
N2510 X23.1880000 Y10.7763000 Z-0.2500000
N2515 X23.1880000 Y10.7763000 Z-0.2500000
N2520 X23.1880000 Y10.7763000 Z-0.2500000
N2525 X23.1880000 Y10.7763000 Z-0.2500000
N2530 X23.1880000 Y10.7763000 Z-0.2500000
N2535 X23.1880000 Y10.7763000 Z-0.2500000
N2540 X23.1880000 Y10.7763000 Z-0.2500000
N2545 X-92559631349317831000000000000000000000000000000000000000000000.0000000 Y-92559631349317831000000000000000000000000000000000000000000000.0000000 Z-0.2500000
N2550 X-92559631349317831000000000000000000000000000000000000000000000.0000000 Y-92559631349317831000000000000000000000000000000000000000000000.0000000 Z0.0000000
(stoping segment)
(starting new segment)
N2555 X-92559631349317831000000000000000000000000000000000000000000000.0000000 Y-92559631349317831000000000000000000000000000000000000000000000.0000000 Z0.0000000
N2560 X-92559631349317831000000000000000000000000000000000000000000000.0000000 Y-92559631349317831000000000000000000000000000000000000000000000.0000000 Z-0.2500000
N2565 X-92559631349317831000000000000000000000000000000000000000000000.0000000 Y-92559631349317831000000000000000000000000000000000000000000000.0000000 Z-0.2500000
N2570 X24.0826000 Y23.3007000 Z-0.2500000
N2575 X24.0826000 Y23.3007000 Z-0.2500000
N2580 X24.0826000 Y23.3007000 Z-0.2500000
N2585 X24.0826000 Y23.3007000 Z-0.2500000
N2590 X24.0826000 Y23.3007000 Z-0.2500000
N2595 X24.0826000 Y23.3007000 Z-0.2500000
N2600 X24.0826000 Y23.3007000 Z-0.2500000
N2605 X24.0826000 Y23.3007000 Z-0.2500000
N2610 X24.0826000 Y23.3007000 Z-0.2500000
N2615 X24.0826000 Y23.3007000 Z-0.2500000
N2620 X24.0826000 Y23.3007000 Z-0.2500000
N2625 X24.0826000 Y23.3007000 Z-0.2500000
N2630 X24.0826000 Y23.3007000 Z-0.2500000
N2635 X24.0826000 Y23.3007000 Z-0.2500000
N2640 X24.0826000 Y23.3007000 Z-0.2500000
N2645 X24.0826000 Y23.3007000 Z-0.2500000
N2650 X24.0826000 Y23.3007000 Z-0.2500000
N2655 X24.0826000 Y23.3007000 Z-0.2500000
N2660 X24.0826000 Y23.3007000 Z-0.2500000
N2665 X24.0826000 Y23.3007000 Z-0.2500000
N2670 X24.0826000 Y23.3007000 Z-0.2500000
N2675 X24.0826000 Y23.3007000 Z-0.2500000
N2680 X24.0826000 Y23.3007000 Z-0.2500000
N2685 X24.0826000 Y23.3007000 Z-0.2500000
N2690 X24.0826000 Y23.3007000 Z-0.2500000
N2695 X24.0826000 Y23.3007000 Z-0.2500000
N2700 X24.0826000 Y23.3007000 Z-0.2500000
N2705 X24.0826000 Y23.3007000 Z-0.2500000
N2710 X24.0826000 Y23.3007000 Z-0.2500000
N2715 X24.0826000 Y23.3007000 Z-0.2500000
N2720 X24.0826000 Y23.3007000 Z-0.2500000
N2725 X24.0826000 Y23.3007000 Z-0.2500000
N2730 X-92559631349317831000000000000000000000000000000000000000000000.0000000 Y-92559631349317831000000000000000000000000000000000000000000000.0000000 Z-0.2500000
N2735 X-92559631349317831000000000000000000000000000000000000000000000.0000000 Y-92559631349317831000000000000000000000000000000000000000000000.0000000 Z0.0000000
(stoping segment)
N2740 X0.0 Y0.0 Z0.0000000
N2745 M9 
N2750 M2