(Drill file generated by gerber parser version 0.1.07 )
(This file is the traces that are to be isolated)
(This file uses 45 deg etching bits)
(Change the value after the F to change the feedrate to something appropriate for your equipment in/minute)
G94 F50
 G1 G20 G90
(Change the value after the S to change the spendel speed to something appropriate for your equipment rpm)
N0 S 10000
N5 M3 M7
N10 M8
N15 X0.0 Y0.0 Z0.0000000
(starting new segment)
N20 X100007.2540000 Y21.5820205 Z0.0000000
N25 X100007.2540000 Y21.5820205 Z-0.2500000
N30 X100007.2540000 Y21.5820205 Z-0.2500000
N35 X10.8360410 Y-99971.2540000 Z-0.2500000
N40 X10.8360410 Y-99971.2540000 Z-0.2500000
N45 X14.4180410 Y-99971.2540000 Z-0.2500000
N50 X14.4180410 Y-99971.2540000 Z-0.2500000
N55 X18.0000410 Y-99971.2540000 Z-0.2500000
N60 X18.0000410 Y-99971.2540000 Z-0.2500000
N65 X21.5820410 Y-99971.2540000 Z-0.2500000
N70 X21.5820410 Y-99971.2540000 Z-0.2500000
N75 X-55459.1836225 Y83226.6114338 Z-0.2500000
N80 X-55459.1836225 Y83226.6114338 Z-0.2500000
N85 X18.0000410 Y-99978.4180000 Z-0.2500000
N90 X18.0000410 Y-99978.4180000 Z-0.2500000
N95 X14.4180000 Y100021.5820000 Z-0.2500000
N100 X14.4180000 Y100021.5820000 Z-0.2500000
N105 X21.5820410 Y-99978.4180000 Z-0.2500000
N110 X21.5820410 Y-99978.4180000 Z-0.2500000
N115 X21.5820410 Y-99978.4180000 Z-0.2500000
N120 X21.5820410 Y-99978.4180000 Z-0.2500000
(Starting arc)
N 125 X69692.2529218 Y-71714.0271025 Z-0.2500000
N 130 X82555.1434808 Y-56442.6653543 Z-0.2500000
N 135 X92127.6813933 Y-38920.2522474 Z-0.2500000
N 140 X98028.2397806 Y-19845.3510971 Z-0.2500000
N 145 X100021.5820000 Y21.5819820 Z-0.2500000
N 150 X98028.2397877 Y19888.5150619 Z-0.2500000
N 155 X92127.6814073 Y38963.4162143 Z-0.2500000
N 160 X82555.1435011 Y56485.8293247 Z-0.2500000
N 165 X69692.2529476 Y71757.1910774 Z-0.2500000
N 170 X54051.8126019 Y84168.6804711 Z-0.2500000
N 175 X36257.3574644 Y93225.4905902 Z-0.2500000
N 180 X17018.2963077 Y98566.5549958 Z-0.2500000
N 185 X-2898.3702122 Y99978.9423047 Z-0.2500000
N 190 X-22698.6274518 Y97406.3450919 Z-0.2500000
N 195 X-41593.1016384 Y90951.3246900 Z-0.2500000
N 200 X-58828.5297110 Y80871.2223925 Z-0.2500000
(Stoping arc)
(Starting arc)
N 205 X98013.9117800 Y19888.5150996 Z-0.2500000
N 210 X92113.3533923 Y38963.4162498 Z-0.2500000
N 215 X82540.8154794 Y56485.8293564 Z-0.2500000
N 220 X69677.9249200 Y71757.1911042 Z-0.2500000
N 225 X54037.4845696 Y84168.6804919 Z-0.2500000
N 230 X36243.0294286 Y93225.4906042 Z-0.2500000
N 235 X17003.9682698 Y98566.5550023 Z-0.2500000
N 240 X-2912.6982506 Y99978.9423036 Z-0.2500000
N 245 X-22712.9554893 Y97406.3450832 Z-0.2500000
N 250 X-41607.4296734 Y90951.3246740 Z-0.2500000
N 255 X-58842.8577421 Y80871.2223699 Z-0.2500000
N 260 X-73732.1175680 Y67567.9000400 Z-0.2500000
N 265 X-85681.6213475 Y51571.7191646 Z-0.2500000
N 270 X-94214.9800737 Y33520.3969963 Z-0.2500000
N 275 X-98991.9956629 Y14133.5827857 Z-0.2500000
(Stoping arc)
N280 X100007.2540000 Y21.5820205 Z-0.2500000
N285 X100007.2540000 Y21.5820205 Z0.0000000
(stoping segment)
N290 X0.0 Y0.0 Z0.0000000
N295 M9 M2